logos/electron.svg

<?xml version="1.0" encoding="UTF-8"?>
<svg width="256px" height="278px" viewBox="0 0 256 278" version="1.1" xmlns="http://www.w3.org/2000/svg" xmlns:xlink="http://www.w3.org/1999/xlink" preserveAspectRatio="xMidYMid">
    <g>
        <path d="M90.3171158,59.6452476 C54.0531428,53.0403672 25.380656,59.9532633 13.9531638,79.7462604 C5.42571317,94.5162382 7.86321575,114.098768 19.8645943,135.031289 C20.8860888,136.812956 23.1584998,137.429197 24.9401663,136.407703 C26.7218328,135.386208 27.338074,133.113797 26.3165796,131.33213 C15.5056005,112.475876 13.4019418,95.5753977 20.3939648,83.4648584 C29.8868314,67.0227313 55.4621928,60.8565478 88.9844771,66.9620752 C91.0049631,67.3300734 92.9412124,65.9904669 93.3092102,63.9699808 C93.6772081,61.9494947 92.3376019,60.0132457 90.3171158,59.6452476 L90.3171158,59.6452476 L90.3171158,59.6452476 Z M143.947534,25.9610407 C140.988421,31.683935 135.015027,35.5957017 128.127991,35.5957017 C118.298509,35.5957017 110.33014,27.6273325 110.33014,17.797851 C110.33014,7.96836928 118.298509,1.42108547e-14 128.127991,1.42108547e-14 C137.957472,1.42108547e-14 145.925842,7.96836928 145.925842,17.797851 C145.925842,18.0549807 145.920389,18.3108368 145.909593,18.5653101 C175.371074,33.8024981 195.843192,85.761892 195.843192,145.791057 C195.843192,170.480085 192.39141,194.172645 185.964468,214.710721 C185.351129,216.670722 183.265025,217.762406 181.305024,217.149066 C179.345024,216.535728 178.253339,214.449624 178.866679,212.489623 C185.063211,192.687848 188.405995,169.743434 188.405995,145.791057 C188.405995,89.2672036 169.616956,40.6279673 143.947534,25.9610407 Z M16.4684852,193.318639 C16.9073722,193.286232 17.3506857,193.269741 17.797851,193.269741 C27.6273326,193.269741 35.5957019,201.238112 35.5957019,211.067592 C35.5957019,220.897074 27.6273326,228.865443 17.797851,228.865443 C7.96836926,228.865443 3.55271368e-15,220.897074 3.55271368e-15,211.067592 C3.55271368e-15,204.376151 3.69273059,198.547193 9.15149469,195.507415 C6.47065759,162.243336 41.4336321,117.653289 94.2703902,87.1479726 C116.217107,74.4770299 139.069121,65.4833624 160.538309,60.8834952 C162.546459,60.4532402 164.523177,61.7323771 164.953432,63.7405273 C165.383687,65.7486774 164.10455,67.7253954 162.0964,68.1556504 C141.405899,72.5886805 119.279047,81.2969524 97.9889886,93.5887738 C48.2302588,122.31699 15.3283215,163.723299 16.4684852,193.318639 Z M222.72727,219.865381 C221.248868,217.270538 220.404297,214.267695 220.404297,211.067592 C220.404297,201.238112 228.372667,193.269741 238.202149,193.269741 C248.03163,193.269741 256,201.238112 256,211.067592 C256,220.897074 248.03163,228.865443 238.202149,228.865443 C234.328664,228.865443 230.74419,227.628037 227.822459,225.526958 C199.429959,242.230297 145.197073,233.710746 94.1613318,204.245247 C72.4360471,191.702148 53.3861949,176.588316 38.7230669,160.474625 C37.3408432,158.955663 37.4516911,156.603788 38.9706526,155.221564 C40.4896138,153.83934 42.8414892,153.950188 44.2237133,155.469149 C58.3574469,171.001076 76.8039615,185.636231 97.8799301,197.804445 C146.044743,225.612415 196.765604,233.887796 222.727272,219.865379 Z M221.562095,155.950872 C220.235197,157.518395 217.888804,157.71346 216.321281,156.386562 C214.753758,155.059664 214.558694,152.713272 215.885592,151.145749 C237.831715,125.219832 245.225311,100.060349 235.752958,83.6537532 C228.876972,71.7441944 213.594165,65.1334199 192.391154,64.8576726 C190.337603,64.8309662 188.694519,63.1445838 188.721226,61.0910321 C188.747933,59.0374807 190.434316,57.3943984 192.487867,57.4211051 C216.06317,57.7277041 233.80251,65.4010837 242.19376,79.9351548 C253.59772,99.6873953 245.306868,127.900131 221.562095,155.950872 Z M72.5636818,221.491933 C71.8712639,219.558453 72.8773433,217.429742 74.8108231,216.737324 C76.7443029,216.044906 78.8730137,217.050986 79.5654312,218.984466 C91.0410719,251.028582 109.156447,270.065665 128.127991,270.065665 C141.772878,270.065665 155.038664,260.291651 165.838488,242.326495 C166.896614,240.566338 169.181284,239.997228 170.941442,241.055354 C172.7016,242.113479 173.27071,244.39815 172.212584,246.158308 C160.195401,266.148501 144.784689,277.502861 128.127991,277.502861 C105.289281,277.502861 84.9785564,256.158729 72.5636818,221.491933 Z M248.562803,211.067592 C248.562803,205.345562 243.924179,200.706938 238.202149,200.706938 C232.480117,200.706938 227.841493,205.345562 227.841493,211.067592 C227.841493,216.789624 232.480117,221.428246 238.202149,221.428246 C243.924179,221.428246 248.562803,216.789624 248.562803,211.067592 Z M17.797851,221.428246 C23.5198824,221.428246 28.1585054,216.789624 28.1585054,211.067592 C28.1585054,205.345562 23.5198824,200.706938 17.797851,200.706938 C12.0758194,200.706938 7.43719645,205.345562 7.43719645,211.067592 C7.43719645,216.789624 12.0758194,221.428246 17.797851,221.428246 Z M128.127991,28.1585054 C133.850022,28.1585054 138.488645,23.5198823 138.488645,17.797851 C138.488645,12.0758194 133.850022,7.43719643 128.127991,7.43719643 C122.405959,7.43719643 117.767337,12.0758194 117.767337,17.797851 C117.767337,23.5198823 122.405959,28.1585054 128.127991,28.1585054 Z M130.84648,158.377484 C123.894845,159.879507 117.046089,155.461619 115.541126,148.509984 C114.042042,141.55835 118.456992,134.709594 125.408626,133.204631 C132.36026,131.702607 139.209017,136.120496 140.71398,143.072131 C142.216003,150.023765 137.798114,156.872521 130.84648,158.377484 Z" fill="#47848F"></path>
    </g>
</svg>

<svg width="256" height="278" xmlns="http://www.w3.org/2000/svg" preserveAspectRatio="xMidYMid">
	<path d="M90.317 59.645c-36.264-6.605-64.936.308-76.364 20.101-8.527 14.77-6.09 34.353 5.912 55.285a3.719 3.719 0 1 0 6.452-3.699c-10.811-18.856-12.915-35.757-5.923-47.867 9.493-16.442 35.068-22.608 68.59-16.503a3.719 3.719 0 1 0 1.333-7.317Zm53.63-33.684c-2.959 5.723-8.932 9.635-15.819 9.635-9.83 0-17.798-7.969-17.798-17.798C110.33 7.968 118.3 0 128.128 0c9.83 0 17.798 7.968 17.798 17.798 0 .257-.006.513-.016.767 29.461 15.237 49.933 67.197 49.933 127.226 0 24.69-3.452 48.382-9.879 68.92a3.719 3.719 0 1 1-7.097-2.221c6.196-19.802 9.539-42.747 9.539-66.699 0-56.524-18.789-105.163-44.458-119.83ZM16.469 193.319a18.05 18.05 0 0 1 1.33-.05c9.83 0 17.798 7.97 17.798 17.799 0 9.83-7.969 17.797-17.798 17.797-9.83 0-17.798-7.968-17.798-17.797 0-6.692 3.693-12.52 9.151-15.56-2.68-33.265 32.283-77.855 85.12-108.36 21.946-12.671 44.798-21.665 66.267-26.265a3.719 3.719 0 0 1 1.558 7.273c-20.69 4.433-42.817 13.141-64.107 25.433-49.759 28.728-82.66 70.134-81.52 99.73Zm206.26 26.546a17.716 17.716 0 0 1-2.324-8.797c0-9.83 7.969-17.798 17.798-17.798 9.83 0 17.798 7.968 17.798 17.798 0 9.83-7.968 17.797-17.798 17.797a17.717 17.717 0 0 1-10.38-3.338c-28.392 16.703-82.625 8.184-133.66-21.282-21.726-12.543-40.776-27.657-55.439-43.77a3.719 3.719 0 0 1 5.5-5.006c14.134 15.532 32.581 30.167 53.657 42.335 48.165 27.808 98.886 36.084 124.847 22.061Zm-1.166-63.914a3.719 3.719 0 0 1-5.676-4.805c21.946-25.926 29.34-51.086 19.867-67.492-6.876-11.91-22.159-18.52-43.362-18.796a3.719 3.719 0 1 1 .097-7.437c23.575.307 41.315 7.98 49.706 22.514 11.404 19.752 3.113 47.965-20.632 76.016ZM72.564 221.49a3.719 3.719 0 0 1 7.001-2.507c11.476 32.045 29.591 51.082 48.563 51.082 13.645 0 26.91-9.774 37.71-27.74a3.719 3.719 0 0 1 6.375 3.832c-12.018 19.99-27.428 31.345-44.085 31.345-22.839 0-43.15-21.344-55.564-56.011Zm175.999-10.423c0-5.722-4.639-10.361-10.36-10.361-5.723 0-10.362 4.639-10.362 10.36 0 5.723 4.64 10.361 10.361 10.361 5.722 0 10.36-4.638 10.36-10.36Zm-230.765 10.36c5.722 0 10.36-4.638 10.36-10.36 0-5.722-4.638-10.361-10.36-10.361-5.722 0-10.36 4.639-10.36 10.36 0 5.723 4.638 10.361 10.36 10.361Zm110.33-193.27c5.722 0 10.36-4.638 10.36-10.36 0-5.722-4.638-10.36-10.36-10.36-5.722 0-10.36 4.638-10.36 10.36 0 5.722 4.638 10.36 10.36 10.36Zm2.718 130.22c-6.951 1.502-13.8-2.916-15.305-9.868-1.499-6.952 2.916-13.8 9.868-15.305 6.951-1.502 13.8 2.915 15.305 9.867 1.502 6.952-2.916 13.8-9.868 15.305Z" fill="#47848F"/>
</svg>
